X:1
T:Gavotte
T:François GOSSEC (1734-1829) 
T:Born a peasant's son in The Netherlands, Gossec became an important figure in the development of French instrumental music. The spritely leaps in the melody are characteristic of this composer. 
%%score 1 ( 2 3 )
L:1/8
Q:1/4=138
M:2/2
K:D
V:1 treble nm="Flute" snm="Fl."
V:2 treble-8 nm="Classical Guitar" snm="Guit."
V:3 treble-8 
V:1
"^Allegro" D2 D2 D2 D2 | d2 d2 d2 d2 |:[Q:1/4=138]!mf! (ab)af (ga)ge | d2{/c'} d'2 d2 z2 | %4
 (ga)ge (fg)fd | e2{/^g} a2 A2 !breath!z2 | (ab)af (ga)ge | d2{/c'} d'2 d2 z2 | %8
 (f/g/)f dB (d/e/)d B^G | A2{/^g} a2 A2 !breath!z2 :: (eg)fa (gf)ed | c2 e2 g2 z2 | (fa)gb (ag)fe | %13
 d2 f2 a2 !breath!z2 |!<(! (ba)(ag) (gf)(fe)!<)! |!f! e2 g2 b2 z2 | (af)cd (ge)Bc | %17
 d2{/c'} d'2 d2 !breath!z2!fine! ::!mp! f2 f2 g2 g2 | ad'(c'd') a2 z2 | d2 d2 e2 e2 | %21
!<(! (f/a/^g/a/!<)!!>(! b/a/=g/f/!>)! e)!tenuto!A!tenuto!B!breath!!tenuto!A | B2 (dB) b2 B2 | %23
 A2 (dA) a2 A2 | g2 A2 f2 A2 | e2 (e/f/g/f/) e2 !breath!z2 ::!p! g2 (g/f/e/d/) .c z!f! .c' z | %27
 .d' z .A z d2 z2 |!p! g2 (g/f/e/d/) .c z!f! .c' z | .d' z .d z f2 !breath!z2 | %30
!p! B2 (d/c/B/A/) .G z .b z | A2 (A/B/A/G/) .F z .a z |!f! g2 (b/a/g/f/) .e z .c z | %33
 d2{/c'} d'2 d2 !breath!z2!D.C.! :| %34
V:2
 D2 D2 D2 D2 | d2 d2 d2 d2 |: D4 A,4 | D4 D4 | C4 D4 | A,4 A,4 | D4 A,4 | D4 D4 | D4 E,4 | %9
 A,4 A,4 :: C4 E4 | A,2 C2 E4 | D4 F4 | A,2 C2 F4 | G,4 B,4 | E4 (gf)eB | A,4 A,4 | D4 D2 z2 :: %18
 [Fda]2 [Fda]2 [Acg]2 [Acg]2 | F4 fdfd | [Adf]2 [Adf]2 [EAc]2 [EAc]2 | [FAd]2 [FAd]2 [Ace]4 | %22
 G,4 G,4 | F,4 F,4 | C4 D4 | A,4 A,2 z2 :: A,4 [cg]A[cg]A | A,4 [df]A[df]A | A,4 [cg]A[cg]A | %29
 A,4 [df]A[df]A | G,4 G,4 | D2 F2 D2 F2 | G,4 A,4 | D4 D2 z2 :| %34
V:3
 x8 | x8 |: z2 [Adf]2 z2 [Acg]2 | z2 !arpeggio!!>![Adf]2 Ddfd | z2 [Acg]2 z2 [Adf]2 | %5
 z2 !arpeggio!!>![Aca]2 A,cac | z2 [Adf]2 z2 [Acg]2 | z2 !arpeggio!!>![Adf]2 x dfd | %8
 z2 [Bdf]2 z2 [Be^g]2 | z2 !arpeggio!!>![Aca]2 A,c=gc :: z2 [Acg]2 z2 [Acg]2 | A,ACc z2 [Acg]2 | %12
 z2 [Adf]2 z2 [Adf]2 | A,ACd z2 [Adf]2 | z2 [GBe]2 z2 [GBg]2 | EBeB x4 | z2 [Adf]2 z2 [Acg]2 | %17
 z2 !arpeggio![Adf]2 x4 :: D2 D2 E2 E2 | Fdfd x4 | D2 D2 A,2 A,2 | D2 D2 A,4 | G,dBd G,dBd | %23
 F,dAd F,dAd | z2 [Acg]2 z2 [Adf]2 | z2 [Aca]2 x4 :: A,AcA x4 | [df]A[df]A x4 | A,AcA x4 | %29
 [df]A[df]A x4 | G,dBd G,dBd | DdAd DdAd | z2 [GBe]2 z2 [Gce]2 | z2 !arpeggio![Adf]2 x4 :| %34

